X:1
T:A minor Jeremiah Ingalls, 1805
T:Samson Occom, 1774          87. 87. 87.
T:Angel's Hymn
T:Transcribed from  Ingalls' Christian Harmony, 1805.
%%score [ 1 2 3 4 ]
L:1/8
Q:1/4=120
M:4/4
K:C
V:1 treble nm="Tr." snm="Tr."
V:2 treble nm="C." snm="C."
V:3 treble-8 nm="T." snm="T."
V:4 bass nm="B." snm="B."
V:1
"^1. Hark! ye mortals, hear the trumpet,   Sounding  loud  the   migh–ty  roar;   Hark! th'Arch–angel's voice proclaiming,  Then old times shall \n2. This  great  rolling  frame  of nature,          That  huge mass  of    bla – zing  day,   Yonder arched ex–panse of Hea–ven,   Ye  must  all  dis –" A2 c2 A2 G2 | %1
 G2 A2 B2 B2 | z4 c3 d | c2 d2 e2 e2 | e8 | z8 | z8 | A2 AG A2 c2 | %8
"^1. be      no   more.      Rol    –    ling    a – ges,          rol      –      ling    a  –  ges,        rol     –     ling   a – ges,         Now  your  solemn  close  ap–pears.\n2.–solve  a  –  way.     Hark!  th'arch–an–gel,          Hark!      th'arch–an–gel,        Hark!  th'arch–an–gel,        Swells  the  solemn  summons  loud." A2 G2 A4- | %9
 A8 | (c2 d2 c2) e2 | e2 e2 z4 | (c2 B2 A2) G2 | G2 G2 z4 | (c2 e2 d2) B2 | d2 d2 z4 | G2 A2 c3 d | %17
 e2 e2 e4- | e8 |] %19
V:2
"^3. See  the  gloomy prisoners  ri–sing,          Hell's  dark  ca–verns  ga–ping   wide;   Wild  confusion seize  the  Christless,  Hor – rors  fill  the\n4. See  the  pur–ple ban–ner   fly–ing,          Hear   the   judgment  cha–riot    roll;     Hear  the  Savior's  words of mercy: Come, ye ransomed" E2 G2 A2 E2 | %1
 G2 A2 E2 E2 | z4 A3 A | G2 GF E2 E2 | E8 | E2 EF G2 A2 | E2 D2 E2 E2 | z8 | %8
"^3. spa – cious  void:     Come  ye  mountains,        come   ye    mountains,           come  ye   mountains,       Hide us from this dire  re–venge.\n4. Heav'n-born Souls.  Judge   these   nations,        judge     these    nations,          judge    these    nations,      Now they all  shall  feel my power." z8 | %9
 z8 | (F2 A2 G2) F2 | E2 E2 z4 | (E2 D2 C2) A,2 | B,2 B,2 z4 | (C2 E2 G2) E2 | A2 A2 z4 | %16
 G2 A2 A3 E | E2 E2 E4- | E8 |] %19
V:3
"^5. Hurled in countless numbers downward,   See  in   wild  dis –  or – der   driven;  Tortured  with  despair  and  anguish,  Left  and  that for –\n6. See  the souls  that  earth  de–spi–sed,          In    ce  – les – tial    glo –ries   move;   Hal – le – lu – jahs   big  with wonder  Praising Christ's e–" A2 G2 A2 B2 | %1
 c2 dc B2 B2 | z4 e3 d | c2 B2 A2 ^G2 | A8 | z8 | z8 | e2 AB c2 e2 | %8
"^5. –ev–er)  heav'n,     How  tre–men–dous,         how   tre – men – dous,          how  tre –men –dous,       Sounds  their  last  decisive doom.\n6. – ter – nal   love:     Hal   –   le – lu  – jahs,         Hal    –    le –  lu  –  jahs,          Hal   –    le –  lu  – jahs,        Echo  through  the realms of light." dc B2 A4- | %9
 A8 | (A2 G2 A2) c2 | B2 B2 z4 | (A2 B2 c2) d2 | e2 e2 z4 | (g2 e2 d2) B2 | d2 d2 z4 | c2 d2 e3 d | %17
 c2 B2 A4- | A8 |] %19
V:4
"^7. Joys  ecstatic,  hymns  harmonious,           In   soft   sym – pho –ny   re – sound,  Angels,  seraphs,  harps, and trumpets, Swell the sweet an–" A,2 E,2 D,2 E,2 | %1
 C,2 D,2 E,2 E,2 | z4 A,3 E, | F,2 E,2 D,2 E,2 | A,,8 | z8 | z8 | E,2 E,2 C,2 A,,2 | %8
"^7. –ge – lic  sound:        Hail   Al – migh – ty!         Hail      Al – migh – ty!            Hail  Al – migh – ty!          Great  e–ter–nal  Lord,  A–men.\n" D,2 E,2 A,,4- | %9
 A,,8 | %10
"^__________________________________________\nEdited by B. C. Johnston, 2017\n   1. Measure 17, Treble: A-B-C-D changed to G-A-C-D." (A,,2 B,,2 C,2) D,2 | %11
 E,2 E,2 z4 | (A,2 E,2 F,2) D,2 | E,2 E,2 z4 | (G,2 A,2 G,2) E,2 | D,2 D,2 z4 | C2 B,2 A,3 G, | %17
 A,2 E,2 A,,4- | A,,8 |] %19

